images_sukapura_svg/cmd/sc_starshapes.signet.svg

<svg viewBox="0 0 16 16" xmlns="http://www.w3.org/2000/svg" xmlns:xlink="http://www.w3.org/1999/xlink"><linearGradient id="a" gradientUnits="userSpaceOnUse" x1="7.457627" x2="7.178261" y1="15.999976" y2=".5"><stop offset="0" stop-color="#e5eefc"/><stop offset="1" stop-color="#fcfdff"/></linearGradient>

/&amp;amp;gt;<path d="m7.1782607.5000005c-.9223129 0-1.1044154 1.6034845-1.9565217 1.9565216-.851576.3527336-2.1134491-.6518134-2.7652174 0-.6517681.6516617.3527341 1.9135115 0 2.7652174-.3529543.8520095-1.9565216 1.0341628-1.9565216 1.9565217 0 .9223588 1.6035673 1.1043604 1.9565216 1.9565216.3527341.8515541-.6517681 2.1134032 0 2.7652182.6517683.651661 1.9136414-.352886 2.7652174 0 .8521063.352885 1.0342088 1.956521 1.9565217 1.956521.9223128 0 1.1044162-1.603636 1.9565213-1.956521.193423-.08015.409402-.08388.633202-.05929l3.659288 3.659289.429249-1.643479 1.643479-.429249-3.659289-3.6592876c-.02461-.2237957-.02083-.4397841.059289-.6332016.352953-.8521612 1.956521-1.0341628 1.956521-1.9565216 0-.9223589-1.603568-1.1045122-1.956521-1.9565217-.352735-.8517059.651768-2.1134798 0-2.7652174-.651768-.6518134-1.913641.3527336-2.765218 0-.8521051-.3530371-1.0342085-1.9565216-1.9565213-1.9565216zm0 3.6426876a3.0355729 3.035573 0 0 1 3.0355733 3.0355731 3.0355729 3.035573 0 0 1 -3.0355733 3.0355728 3.0355729 3.035573 0 0 1 -3.0355731-3.0355728 3.0355729 3.035573 0 0 1 3.0355731-3.0355731z" fill="url(#a)" stroke="#0a84ff" stroke-linejoin="round"/></svg>

<?xml version="1.0" encoding="UTF-8" standalone="no"?>
<svg
   xmlns:dc="http://purl.org/dc/elements/1.1/"
   xmlns:cc="http://creativecommons.org/ns#"
   xmlns:rdf="http://www.w3.org/1999/02/22-rdf-syntax-ns#"
   xmlns:svg="http://www.w3.org/2000/svg"
   xmlns="http://www.w3.org/2000/svg"
   xmlns:xlink="http://www.w3.org/1999/xlink"
   xmlns:sodipodi="http://sodipodi.sourceforge.net/DTD/sodipodi-0.dtd"
   xmlns:inkscape="http://www.inkscape.org/namespaces/inkscape"
   viewBox="0 0 16 16"
   version="1.1"
   id="svg8"
   sodipodi:docname="sc_starshapes.signet.svg"
   inkscape:version="0.92.3 (2405546, 2018-03-11)"><metadata
   id="metadata14">
  <rdf:RDF>
    <cc:Work
       rdf:about="">
      <dc:format>image/svg+xml</dc:format>
      <dc:type
         rdf:resource="http://purl.org/dc/dcmitype/StillImage" />
      <dc:title></dc:title>
    </cc:Work>
  </rdf:RDF>
</metadata>
<defs
   id="defs12">
  <linearGradient
     gradientTransform="translate(-27.322034,-5.0847456)"
     id="a"
     gradientUnits="userSpaceOnUse"
     x1="12"
     x2="12"
     y1="21.5"
     y2="2.5">
    <stop
       offset="0"
       stop-color="#e5eefc"
       id="stop1020" />
    <stop
       offset="1"
       stop-color="#fcfdff"
       id="stop1022" />
  </linearGradient>
  <linearGradient
     inkscape:collect="always"
     xlink:href="#a"
     id="linearGradient839"
     x1="7.5932202"
     y1="15.796587"
     x2="7.8643599"
     y2="0.54234952"
     gradientUnits="userSpaceOnUse" />
</defs>
<sodipodi:namedview
   pagecolor="#ffffff"
   bordercolor="#666666"
   borderopacity="1"
   objecttolerance="10"
   gridtolerance="10"
   guidetolerance="10"
   inkscape:pageopacity="0"
   inkscape:pageshadow="2"
   inkscape:window-width="1366"
   inkscape:window-height="716"
   id="namedview10"
   showgrid="false"
   inkscape:zoom="14.75"
   inkscape:cx="-1.6610169"
   inkscape:cy="8"
   inkscape:window-x="-8"
   inkscape:window-y="-8"
   inkscape:window-maximized="1"
   inkscape:current-layer="svg8" />
/&gt;<path
   inkscape:connector-curvature="0"
   style="fill:url(#linearGradient839);fill-opacity:1;stroke:#0a84ff;stroke-linejoin:round;stroke-opacity:1"
   id="path2"
   d="m 7.1782607,0.5000005 c -0.9223129,0 -1.1044154,1.6034845 -1.9565217,1.9565216 -0.851576,0.3527336 -2.1134491,-0.6518134 -2.7652174,0 -0.6517681,0.6516617 0.3527341,1.9135115 0,2.7652174 C 2.1035673,6.073749 0.5,6.2559023 0.5,7.1782612 c 0,0.9223588 1.6035673,1.1043604 1.9565216,1.9565216 0.3527341,0.8515541 -0.6517681,2.1134032 0,2.7652182 0.6517683,0.651661 1.9136414,-0.352886 2.7652174,0 0.8521063,0.352885 1.0342088,1.956521 1.9565217,1.956521 0.9223128,0 1.1044162,-1.603636 1.9565213,-1.956521 0.193423,-0.08015 0.409402,-0.08388 0.633202,-0.05929 L 13.427272,15.5 13.856521,13.856521 15.5,13.427272 11.840711,9.7679844 C 11.816101,9.5441887 11.819881,9.3282003 11.9,9.1347828 12.252953,8.2826216 13.856521,8.10062 13.856521,7.1782612 13.856521,6.2559023 12.252953,6.073749 11.9,5.2217395 c -0.352735,-0.8517059 0.651768,-2.1134798 0,-2.7652174 -0.651768,-0.6518134 -1.913641,0.3527336 -2.765218,0 C 8.2826769,2.103485 8.1005735,0.5000005 7.1782607,0.5000005 Z m 0,3.6426876 A 3.0355729,3.035573 0 0 1 10.213834,7.1782612 3.0355729,3.035573 0 0 1 7.1782607,10.213834 3.0355729,3.035573 0 0 1 4.1426876,7.1782612 3.0355729,3.035573 0 0 1 7.1782607,4.1426881 Z" />
</svg>
